X:1
T:[ID 2-24]
T:[ID 2-24]
T:Bezeichnung standardisiert: Menuett Menuet 2 Nr 4.
T:Urheber unbekannt Erstbeleg: 1767 (Datum in der schriftlichen Quelle) Datum in der hier transkribierten schriftlichen Quelle: 1792
C:Urheber unbekannt
C:Erstbeleg: 1767 (Datum in der schriftlichen Quelle)
C:Datum in der hier transkribierten schriftlichen Quelle: 1792
%%score 1 2
L:1/8
M:3/4
K:G
V:1 treble nm="Primo"
V:2 treble nm="Secondo"
V:1
 d4 (3efg | e2 d2 z2 | d2 g2 bg | d2 c2 B2 | A2 c'2 a2 | fgaf g2 | (ed)(dc)(cB) | A2 G4 :: A3 cBd | %9
 c2 A2 z2 | (3BAB (3cBc (3dcd | e2 c2 z2 | d2 c'2 a2 | fgaf g2 | (3edc B2 A2 | A2 G4 :| %16
V:2
 !fermata!B4 (3cde | c2 B2 z2 | B2 d2 ge | B2 A2 G2 | F2 a2 c2 | ABcA B2 | cBBAAG | G2 F4 :: %8
 F3 AGB | A2 F2 z2 | (3GFG (3AGA (3BAB | c2 A2 z2 | d2 a2 c2 | ABcA B2 | (3cBA G2 D2 | C2 B,4 :| %16

